X:1
T:identity v hunter lobby
T:Euro Huang
T:Identity v 
T:Login Theme
C:Euro Huang
%%score { 1 | 2 }
L:1/8
Q:1/8=60
M:6/8
K:Bb
V:1 treble nm="Piano" snm="Pno."
V:2 bass 
V:1
!mp!!ped! d'/gg/b/!ped-up! a7/2 | x6 |[M:4/4]!mp![Q:1/4=70] z8!ped!!ped-up! | z8!ped! | %4
 d!ped! G2 G B A3!ped-up! | x8 | d!ped! G2 G B A2 E!ped-up! | D8!ped!!ped-up! | %8
"_cresc." [dd']!ped! [Gg]2 [Gg] [Bb] [Aa]3!ped-up! | x8 | %10
 [dd']!ped! [Gg]2 [Gg] [Bb] [Aa]2 [Ee]!ped-up! | [Dd]8!ped!!ped-up! | %12
!mp!"_cresc." A!ped!GBG- GGAG!ped-up! | A!ped!GBG- GGAG!ped-up! | A!ped!GBG- GGAB!ped-up! | %15
!f!!<(! d!ped!ccA!>(! BA/G/ A2!ped-up!!<)!!>)! | %16
!mp!"_cresc." [Aa]!ped![Gg][Bb][Gg]- [Gg][Gg][Aa][Gg]!ped-up! | %17
 [Aa]!ped![Gg][Bb][Gg]- [Gg][Gg][Aa][Gg]!ped-up! | %18
 [Aa]!ped![Gg][Bb][Gg]- [Gg][Gg][Aa][Bb]!ped-up! | %19
!f!!<(! [dd']!ped![cc'][cd'][Aa]!>(! [Bb][Aa]/[Gg]/ [Aa][Gg]!ped-up!!<)!!>)! | %20
[M:6/8][Q:1/8=60]!p! z!ped! z/ B3/2- B3!ped-up! | z!ped! z/ A3/2- A3!ped-up! |] %22
V:2
 z6 | z6 |[M:4/4] [G,,D,]2 [G,,D,]2 [G,,E,]2 [G,,E,]2 | [G,,D,]2 [G,,D,]2 [G,,E,]2 [G,,E,]2 | %4
 [G,,D,]2 [G,,D,]2 [G,,E,]2 [G,,E,]2 | x8 | [G,,D,]2 [G,,D,]2 [G,,E,]2 [G,,E,]2 | %7
 [G,,D,]2 [G,,D,]2 [G,,E,]2 [G,,E,]2 | [G,,D,]2 [G,,D,]2 [G,,E,]2 [G,,E,]2 | x8 | %10
 [G,,D,]2 [G,,D,]2 [G,,E,]2 [G,,E,]2 | [G,,D,]2 [G,,D,]2 [G,,E,]2 [G,,E,]2 | %12
 [G,,D,]2 [G,,D,]2 [G,,E,]2 [G,,E,]2 | [G,,D,]2 [G,,D,]2 [G,,=E,]2 [G,,E,]2 | %14
 [G,,E,]2 [G,,E,]2 [G,,D,]2 [G,,D,]2 | [G,,E,]2 [G,,E,]2 [G,,=E,]2 [G,,E,]2 | %16
 [G,,D,]2 [G,,D,]2 [G,,E,]2 [G,,E,]2 | [G,,D,]2 [G,,D,]2 [G,,=E,]2 [G,,E,]2 | %18
 [G,,E,]2 [G,,E,]2 [G,,D,]2 [G,,D,]2 | [G,,E,]2 [G,,E,]2 [G,,=E,]2 [G,,E,]2 | %20
[M:6/8] G,/D/E/ z/ z4 | G,/D/E/ z/ z4 |] %22

